img/ic-souvenir.svg

<svg width="72" height="72" viewBox="0 0 72 72" fill="none" xmlns="http://www.w3.org/2000/svg">
<path fill-rule="evenodd" clip-rule="evenodd" d="M65.097 22.5016H40.312C54.125 15.6026 55.229 11.2506 54.72 8.81661C53.558 4.85361 49.028 1.79361 44.718 3.40961C39.149 5.49861 37.581 13.7976 36.074 19.7966C34.15 13.7266 32.29 5.98261 27.938 2.05961C26.677 0.921609 24.843 -0.204391 22.175 0.0316095C18.149 0.387609 12.373 5.41361 14.717 11.0126C16.968 16.3906 24.404 19.7896 29.295 22.5016H6.879C5.29355 22.5032 4.00715 23.7852 4 25.3706V36.6926C4.00715 38.278 5.29355 39.56 6.879 39.5616H7.153V72.0006H64.994V39.5616H65.097C66.6828 39.5605 67.9698 38.2784 67.977 36.6926V25.3706C67.9698 23.7848 66.6828 22.5027 65.097 22.5016ZM46.413 5.94461C48.516 5.63461 51.395 7.24361 51.668 9.15361C52.061 11.9096 48.268 14.4086 46.582 15.5746C44.059 17.3186 41.654 18.2176 39.295 19.6296C40.179 15.9396 41.844 6.61861 46.413 5.94461ZM23.531 15.9126C21.306 14.4276 16.987 11.4816 17.091 8.14161C17.203 4.54661 22.834 1.57161 25.905 4.25561C29.761 7.62661 31.618 15.3606 33.024 20.8126C29.775 19.2736 26.696 18.0246 23.531 15.9126ZM29.503 69.0266H10.136V39.5616H29.504L29.503 69.0266ZM29.503 36.5246H7.046V25.5386H29.503V36.5246ZM39.66 69.0276H32.486V25.5386H39.66V69.0276ZM62.011 69.0266H42.644V39.5616H62.011V69.0266ZM64.931 36.5246H42.644V25.5386H64.931V36.5246Z" fill="#81B3D2"/>
</svg>

<svg xmlns="http://www.w3.org/2000/svg" width="72" height="72" fill="none"><path fill="#81B3D2" fill-rule="evenodd" d="M65.097 22.502H40.312c13.813-6.9 14.917-11.251 14.408-13.685-1.162-3.963-5.692-7.023-10.002-5.407-5.569 2.089-7.137 10.388-8.644 16.387-1.924-6.07-3.784-13.814-8.136-17.737C26.677.922 24.843-.204 22.175.032c-4.026.356-9.802 5.382-7.458 10.98 2.251 5.379 9.687 8.778 14.578 11.49H6.879A2.882 2.882 0 0 0 4 25.37v11.322a2.882 2.882 0 0 0 2.879 2.869h.274V72h57.841V39.56h.103a2.882 2.882 0 0 0 2.88-2.868V25.37a2.882 2.882 0 0 0-2.88-2.87ZM46.413 5.945c2.103-.31 4.982 1.299 5.255 3.209.393 2.756-3.4 5.255-5.086 6.42-2.523 1.745-4.928 2.644-7.287 4.056.884-3.69 2.549-13.011 7.118-13.685Zm-22.882 9.968c-2.225-1.485-6.544-4.431-6.44-7.771.112-3.595 5.743-6.57 8.814-3.886 3.856 3.37 5.713 11.105 7.119 16.557-3.249-1.54-6.328-2.788-9.493-4.9Zm5.972 53.114H10.136V39.562h19.368l-.001 29.465Zm0-32.502H7.046V25.539h22.457v10.986ZM39.66 69.028h-7.174v-43.49h7.174v43.49Zm22.351-.001H42.644V39.562h19.367v29.465Zm2.92-32.502H42.644V25.539h22.287v10.986Z" clip-rule="evenodd"/></svg>
